src/assets/outline/Convert3dCube.svg

<svg width="24" height="24" viewBox="0 0 24 24"  xmlns="http://www.w3.org/2000/svg">
<path d="M15.0002 22.75C14.7302 22.75 14.4802 22.6 14.3502 22.37C14.2202 22.14 14.2202 21.85 14.3602 21.62L15.4102 19.87C15.6202 19.51 16.0802 19.4 16.4402 19.61C16.8002 19.82 16.9102 20.28 16.7002 20.64L16.4302 21.09C19.1902 20.44 21.2602 17.96 21.2602 15C21.2602 14.59 21.6002 14.25 22.0102 14.25C22.4202 14.25 22.7602 14.59 22.7602 15C22.7502 19.27 19.2702 22.75 15.0002 22.75Z" />
<path d="M2 9.75C1.59 9.75 1.25 9.41 1.25 9C1.25 4.73 4.73 1.25 9 1.25C9.27 1.25 9.51999 1.4 9.64999 1.63C9.77999 1.86 9.78 2.15 9.64 2.38L8.59 4.13C8.38 4.49001 7.92 4.60001 7.56 4.39001C7.2 4.18001 7.09 3.71999 7.3 3.35999L7.57001 2.90997C4.81001 3.55997 2.74001 6.04 2.74001 9C2.75001 9.41 2.41 9.75 2 9.75Z" />
<path d="M17.6799 7.49963C17.5499 7.49963 17.4199 7.46965 17.2999 7.39965L13.3299 5.09961C12.9699 4.88961 12.8499 4.42964 13.0599 4.06964C13.2699 3.70964 13.7299 3.58962 14.0799 3.79962L17.6799 5.87963L21.2499 3.80963C21.6099 3.59963 22.0699 3.72965 22.2699 4.07965C22.4799 4.43965 22.3499 4.89961 21.9999 5.10961L18.0499 7.38964C17.9399 7.45964 17.8099 7.49963 17.6799 7.49963Z" />
<path d="M17.6802 11.5698C17.2702 11.5698 16.9302 11.2298 16.9302 10.8198V6.73975C16.9302 6.32975 17.2702 5.98975 17.6802 5.98975C18.0902 5.98975 18.4302 6.32975 18.4302 6.73975V10.8198C18.4302 11.2398 18.0902 11.5698 17.6802 11.5698Z" />
<path d="M17.6799 11.7502C17.2199 11.7502 16.7499 11.6502 16.3799 11.4402L13.9799 10.1102C13.1999 9.68017 12.6099 8.67022 12.6099 7.78022V5.24018C12.6099 4.34018 13.1999 3.34021 13.9899 2.90021L16.3899 1.5702C17.1299 1.1602 18.2399 1.1602 18.9899 1.5702L21.3899 2.90021C22.1699 3.33021 22.7599 4.34017 22.7599 5.23017V7.77021C22.7599 8.67021 22.1699 9.67016 21.3899 10.1002L18.9899 11.4302C18.5999 11.6502 18.1399 11.7502 17.6799 11.7502ZM17.1099 2.87018L14.7099 4.2002C14.4099 4.3702 14.1099 4.88016 14.1099 5.22016V7.7602C14.1099 8.1102 14.4099 8.62022 14.7099 8.78022L17.1099 10.1202C17.3999 10.2802 17.9599 10.2802 18.2499 10.1202L20.6499 8.79017C20.9499 8.62017 21.2499 8.11021 21.2499 7.77021V5.23017C21.2499 4.88017 20.9499 4.37021 20.6499 4.21021L18.2499 2.88019C17.9599 2.71019 17.3899 2.71018 17.1099 2.87018Z" />
<path d="M6.32002 18.4996C6.19002 18.4996 6.06002 18.4697 5.94002 18.3997L1.97002 16.0996C1.61002 15.8896 1.49001 15.4296 1.70001 15.0696C1.91001 14.7096 2.37002 14.5896 2.72002 14.7996L6.32002 16.8796L9.89001 14.8096C10.25 14.5996 10.71 14.7296 10.91 15.0796C11.12 15.4396 10.99 15.8996 10.64 16.1096L6.69002 18.3896C6.58002 18.4596 6.45002 18.4996 6.32002 18.4996Z" />
<path d="M6.31982 22.5698C5.90982 22.5698 5.56982 22.2298 5.56982 21.8198V17.7397C5.56982 17.3297 5.90982 16.9897 6.31982 16.9897C6.72982 16.9897 7.06982 17.3297 7.06982 17.7397V21.8198C7.06982 22.2398 6.73982 22.5698 6.31982 22.5698Z" />
<path d="M6.32001 22.7499C5.86001 22.7499 5.39 22.6499 5.02 22.4399L2.62 21.1099C1.84 20.6799 1.25 19.67 1.25 18.78V16.2399C1.25 15.3399 1.84 14.3399 2.62 13.9099L5.02 12.58C5.76 12.17 6.88 12.17 7.62 12.58L10.02 13.9099C10.8 14.3399 11.39 15.3499 11.39 16.2399V18.78C11.39 19.68 10.8 20.6799 10.01 21.1199L7.61 22.45C7.25 22.65 6.79001 22.7499 6.32001 22.7499ZM5.75 13.8699L3.35001 15.2C3.05001 15.37 2.75 15.8799 2.75 16.2199V18.76C2.75 19.11 3.05001 19.62 3.35001 19.78L5.75 21.1099C6.04 21.2699 6.6 21.2699 6.89 21.1099L9.28999 19.78C9.58999 19.61 9.89 19.1 9.89 18.76V16.2199C9.89 15.8699 9.58999 15.36 9.28999 15.2L6.89 13.8599C6.61 13.7099 6.04 13.7099 5.75 13.8699Z" />
</svg>

<?xml version="1.0" encoding="UTF-8"?>
<svg width="24" height="24" viewBox="0 0 24 24" xmlns="http://www.w3.org/2000/svg">
 <path d="m15 22.75c-0.27 0-0.52-0.15-0.65-0.38s-0.13-0.52 0.01-0.75l1.05-1.75c0.21-0.36 0.67-0.47 1.03-0.26s0.47 0.67 0.26 1.03l-0.27 0.45c2.76-0.65 4.83-3.13 4.83-6.09 0-0.41 0.34-0.75 0.75-0.75s0.75 0.34 0.75 0.75c-0.01 4.27-3.49 7.75-7.76 7.75z"/>
 <path d="m2 9.75c-0.41 0-0.75-0.34-0.75-0.75 0-4.27 3.48-7.75 7.75-7.75 0.27 0 0.51999 0.15 0.64999 0.38s0.13001 0.52-0.00999 0.75l-1.05 1.75c-0.21 0.36001-0.67 0.47001-1.03 0.26001s-0.47-0.67002-0.26-1.03l0.27001-0.45002c-2.76 0.65-4.83 3.13-4.83 6.09 0.01 0.41-0.33001 0.75-0.74001 0.75z"/>
 <path d="m17.68 7.4996c-0.13 0-0.26-0.02998-0.38-0.09998l-3.97-2.3c-0.36-0.21-0.48-0.66997-0.27-1.03s0.67-0.48002 1.02-0.27002l3.6 2.08 3.57-2.07c0.36-0.21 0.82-0.07998 1.02 0.27002 0.21 0.36 0.08 0.81996-0.27 1.03l-3.95 2.28c-0.11 0.07-0.24 0.10999-0.37 0.10999z"/>
 <path d="m17.68 11.57c-0.41 0-0.75-0.34-0.75-0.75v-4.08c0-0.41 0.34-0.75 0.75-0.75s0.75 0.34 0.75 0.75v4.08c0 0.42-0.34 0.75-0.75 0.75z"/>
 <path d="m17.68 11.75c-0.46 0-0.93-0.1-1.3-0.31l-2.4-1.33c-0.78-0.43003-1.37-1.44-1.37-2.33v-2.54c0-0.9 0.59-1.9 1.38-2.34l2.4-1.33c0.74-0.41 1.85-0.41 2.6 0l2.4 1.33c0.78 0.43 1.37 1.44 1.37 2.33v2.54c0 0.9-0.59 1.9-1.37 2.33l-2.4 1.33c-0.39 0.22-0.85 0.32-1.31 0.32zm-0.57-8.88-2.4 1.33c-0.3 0.17-0.6 0.67996-0.6 1.02v2.54c0 0.35 0.3 0.86002 0.6 1.02l2.4 1.34c0.29 0.16 0.85 0.16 1.14 0l2.4-1.33c0.3-0.17 0.6-0.67996 0.6-1.02v-2.54c0-0.35-0.3-0.85996-0.6-1.02l-2.4-1.33c-0.29-0.17-0.86-0.17001-1.14-0.01001z"/>
 <path d="m6.32 18.5c-0.13 0-0.26-0.0299-0.38-0.0999l-3.97-2.3001c-0.36-0.21-0.48001-0.67-0.27001-1.03s0.67001-0.48 1.02-0.27l3.6 2.08 3.57-2.07c0.35999-0.21 0.81999-0.08 1.02 0.27 0.21 0.36 0.08 0.82-0.27 1.03l-3.95 2.28c-0.11 0.07-0.24 0.11-0.37 0.11z"/>
 <path d="m6.3198 22.57c-0.41 0-0.75-0.34-0.75-0.75v-4.0801c0-0.41 0.34-0.75 0.75-0.75s0.75 0.34 0.75 0.75v4.0801c0 0.42-0.33 0.75-0.75 0.75z"/>
 <path d="m6.32 22.75c-0.46 0-0.93001-0.1-1.3-0.31l-2.4-1.33c-0.78-0.43-1.37-1.4399-1.37-2.3299v-2.5401c0-0.9 0.59-1.9 1.37-2.33l2.4-1.3299c0.74-0.41 1.86-0.41 2.6 0l2.4 1.3299c0.78 0.43 1.37 1.44 1.37 2.33v2.5401c0 0.9-0.59 1.8999-1.38 2.3399l-2.4 1.3301c-0.36 0.2-0.81999 0.2999-1.29 0.2999zm-0.57001-8.88-2.4 1.3301c-0.3 0.17-0.60001 0.6799-0.60001 1.0199v2.5401c0 0.35 0.30001 0.86 0.60001 1.02l2.4 1.3299c0.29 0.16 0.85 0.16 1.14 0l2.4-1.3299c0.3-0.17 0.60001-0.68 0.60001-1.02v-2.5401c0-0.35-0.30001-0.8599-0.60001-1.0199l-2.4-1.3401c-0.28-0.15-0.85-0.15-1.14 0.01z"/>
</svg>
